X: 14938
T: Gavotte De Scrignac
R: reel
M: 4/4
K: Amajor
|:ec ed cB Ac|ec def2e2:|
|:ef/g/a gf g f2|egfe cdB2|cd ef edc2|BA GA B2A2:|

